!!!!SEGMENT: pl-kk--kk-i-346--003_anonim--alleluja.krn
!!!cenid: 17xx:2161
!!!COM: Anonim
!!!COM-rismID: pe30004985
!!!CDT:
!!!CNT:
!!!OTL: Alleluja
!!!PDT:
!!!AGN: Sacred
!!!SMS-siglum: PL-Kk
!!!SMS-shelfmark: Kk.I.346
!!!SMS-shelfwork: 003 W
!!!SMS-variant:
!!!SMS-altvar:
!!!NIFC-rismSourceID: 1001145567
!!!NIFC-rismChildID: 1001145578
!!!NIFC-islandoraID: pl-kk:5762
!!!URL-pdf-islandora: https://repozytorium.nifc.pl/islandora/object/pl-kk%3A5762/datastream/PDF/view
!!!URL-scan: https://polish.musicsources.pl/pl/lokalizacje/galeria/rekopisy/5963 @EN{Scan on Polish Music Sources Website} @PL{Skany w portalu Dziedzictwo Muzyki Polskiej w otwartym dostępie}
!!!ONB-nifc: UWAGA: utwory w zbiorze: 1. Rorate caeli, 2. Tollite portas, 3. Alleluja, 4. Ave Maria
!!!AIN: 1 alto 1 bass 2 tenor
!!!key: F:lyd
**kern	**text	**kern	**text	**kern	**text	**kern	**text	**text
*part4	*part4	*part3	*part3	*part2	*part2	*part1	*part1	*part1
*group1	*	*group1	*	*group1	*	*group1	*	*
*staff4	*staff4	*staff3	*staff3	*staff2	*staff2	*staff1	*staff1	*staff1
*I"Baſsus.	*	*I"Tenor 2d(us)	*	*I"Tenor Primus	*	*I"Altus	*	*
*mI"Basso	*	*mI"Tenore II	*	*mI"Tenore I	*	*mI"Alto	*	*
*I'B	*	*I'T II	*	*I'T I	*	*I'A	*	*
*Ibass	*	*Itenor	*	*Itenor	*	*Ialto	*	*
*ICvox	*	*ICvox	*	*ICvox	*	*ICvox	*	*
*clefF4	*	*clefC4	*	*clefC4	*	*clefC3	*	*
*	*	*mclefGv2	*	*mclefGv2	*	*mclefG2	*	*
*k[b-]	*	*k[b-]	*	*k[b-]	*	*k[b-]	*	*
*F:lyd	*	*F:lyd	*	*F:lyd	*	*F:lyd	*	*
*M3/2	*	*M3/2	*	*M3/2	*	*M3/2	*	*
=1	=1	=1	=1	=1	=1	=1	=1	=1
*xywh-#21:4288,1182,3832,1204	*	*xywh-#16:4379,1838,3789,1175	*	*xywh-#11:4386,3251,3818,867	*	*xywh-#6:4251,2852,3806,1194	*	*
!!LO:TX:a:B:t= :mod=A Nativitate ad Purificationem
!LO:TX:a:t=â Nativitate \nad Purificationem.:mod=	!	!LO:TX:a:t=A Nativitate \nad Purificatio\nnem.:mod=	!LO:MO:mod=Al-	!LO:TX:a:t=â Nativitate \nad Purificati\nonem.:mod=	!LO:MO:mod=Al-	!LO:TX:a:t=A Nativitate \nad Purificationem:mod=	!	!
!	!	!LO:SIC:s=(1c	!	!LO:SIC:s=(4A/	!	!LO:SIC:s=(4f\	!	!
[1.F	Al-	1c	AL-	4A/	AL-	4f\	Al-	.
.	.	.	.	4G/	.	4e\	.	.
.	.	.	.	4A/	.	4f\	.	.
.	.	.	.	4B-\	.	4g\	.	.
!	!	!	!	!	!	!LO:MO:mod=*null:null	!	!
*	*	*	*	*	*	*2\right	*	*
.	.	2A/	.	2A/	.	2f\	.	.
=2	=2	=2	=2	=2	=2	=2	=2	=2
1.F]	.	1F	.	4A/	.	4f\	.	.
.	.	.	.	4G/	.	4e\	.	.
.	.	.	.	4A/	.	4f\	.	.
.	.	.	.	4B-\	.	4g\	.	.
!	!	!LO:SIC:s=2A/)	!	!LO:SIC:s=2A/)	!	!LO:SIC:s=2f\)	!	!
.	.	2A/	.	2A/	.	2f\	.	.
=3	=3	=3	=3	=3	=3	=3	=3	=3
1F	-le-	1c	-le-	1A	-le-	1f	-le-	.
!	!	!LO:MO:mod=*null:null	!	!LO:MO:mod=*null:null	!	!	!	!
*	*	*2\right	*	*2\right	*	*	*	*
2BB-/	-lu-	2d\	-lu-	2B-\	-lu-	2f\	-lu-	.
!	!	!	!	!LO:LB:g=original	!	!	!	!
=4-	=4-	=4-	=4-	=4	=4	=4	=4	=4
*	*	*	*	*xywh-#11:4378,3730,3814,929	*	*	*	*
!	!LO:MO:mod=-ja,	!	!LO:MO:mod=-ja,	!LO:SIC:s=(4A/	!LO:MO:mod=-ja,	!LO:SIC:s=(4f\	!LO:MO:mod=-ja,	!
1.F,	-ja	1c	-ja	4A/	-ja	4f\	-ja	.
.	.	.	.	4G/	.	4e\	.	.
.	.	.	.	4A/	.	4f\	.	.
.	.	.	.	4B-\	.	4g\	.	.
!	!	!	!	!	!	!LO:SIC:s=2f\),	!	!
.	.	2r	.	4A\	.	2f\	.	.
!	!	!	!	!LO:SIC:s=4B-\),	!	!	!	!
.	.	.	.	4B-\	.	.	.	.
=5	=5	=5	=5	=5	=5	=5	=5	=5
!LO:SIC:s=(1FF	!	!LO:SIC:s=(1c	!	!LO:SIC:s=(1A	!	!LO:SIC:s=(1f	!	!
1FF	al-	1c	al-	1A	al-	1f	al-	.
2GG/	.	2B-\	.	2G/	.	2B-/	.	.
=6-	=6-	=6	=6	=6	=6	=6-	=6-	=6
!	!LO:MO:mod=.	!	!	!	!	!	!	!
1AA	-le-	1A	.	1F	.	4f\	.	.
.	.	.	.	.	.	4e\	.	.
.	.	.	.	.	.	4f\	.	.
.	.	.	.	.	.	4g\	.	.
!LO:SIC:s=2FF/)	!	!LO:SIC:s=2c\)	!	!LO:SIC:s=2A/)	!	!LO:SIC:s=2f\)	!	!
2FF/	.	2c\	.	2A/	.	2f\	.	.
=7	=7	=7-	=7-	=7	=7	=7	=7	=7
!	!LO:MO:null:mod=-le-	!	!	!	!	!	!	!
1BB-	.	1B-	-le-	(2G/	-le-	1f	-le-	.
.	.	.	.	2d\)	.	.	.	.
2C/	-lu-	2G/	-lu-	2c\	-lu-	2e\	-lu-	.
=8-	=8-	=8	=8	=8	=8	=8-	=8-	=8-
!	!LO:MO:mod=-ja.	!	!LO:MO:mod=-ja.	!	!LO:MO:mod=-ja.	!LO:SIC:s=1f,	!LO:MO:mod=-ja.	!
1FF,<	-ja!	1A,<	-ja.	1A,<	-ja	1f	-ia	.
!LO:MO:mod=*null:null	!	!	!	!	!	!	!	!
*	*	*	*	*	*	*xywh-#6:4301,3834,3698,832	*	*
*2\right	*	*	*	*	*	*	*	*
!	!	!	!	!	!	!LO:LB:g=original	!	!
2F\	Post	2c\	Post	2A/	Post	2f\	Post	.
=9	=9	=9	=9	=9	=9	=9	=9	=9
1B-	par-	1d	par-	1B-	par-	1f	par-	.
!	!	!LO:SIC:s=2e\	!	!	!	!	!	!
2G\	-tum	2en\	-tum	2B-\	-tum	2g\	-tum	.
=10	=10	=10	=10	=10	=10	=10	=10	=10
1F	Vir-	1f	Vir-	1c	Vir-	1a	Vir-	.
2F\	-go	2f\	-go	2c\	-go	2a\	-go	.
!LO:LB:g=original	!	!LO:LB:g=original	!	!	!	!	!	!
=11-	=11-	=11-	=11-	=11	=11	=11	=11	=11
*xywh-#21:4227,2185,3878,760	*	*xywh-#16:4270,2747,3871,818	*	*	*	*	*	*
2F\	in-	2f\	in-	2c\	in-	2a\	in-	.
2A\	-vi-	2f\	-vi-	2c\	-vi-	2a\	-vi-	.
2F\	-o-	2f\	-o-	2c\	-o-	2a\	-o-	.
=12	=12	=12-	=12-	=12	=12	=12	=12	=12
!	!	!LO:SIC:s=2.e\	!	!	!	!	!	!
2c\	-la-	2.en\	-la-	2.c\	-la-	2.g\	-la-	.
2C/	-ta	.	.	.	.	.	.	.
!	!	!LO:TX:a:t=d:mod=	!	!	!	!	!	!
.	.	4d\	-ta	4c\	-ta	4f\	-ta	.
2E\	per-	2c\	per-	2c\	per-	2e\	per-	.
!	!	!	!	!LO:LB:g=original	!	!	!	!
=13	=13	=13	=13	=13	=13	=13	=13	=13
*	*	*	*	*xywh-#11:4445,4271,3539,890	*	*	*	*
2F\	-man-	2d\	-man-	2c\	-man-	2a\	-man-	.
1G	-ſi-	1d	-ſi-	(2c\	ſi-	(2d\	ſi-	.
.	.	.	.	2Bn\)	.	2g\)	.	.
=14-	=14-	=14	=14	=14	=14	=14	=14	=14
!	!LO:MO:mod=-sti.	!	!LO:MO:mod=-sti.	!	!LO:MO:mod=-sti.	!	!LO:MO:mod=-sti.	!
1.C	-ſti	1.c	-ſti	2c\	-ſti	1.e	-ſti	.
.	.	.	.	2c\	De-	.	.	.
.	.	.	.	2c\	-i	.	.	.
=15	=15	=15	=15	=15	=15	=15	=15	=15
1F	De-	1c	De-	2.A/	Ge-	1f	De-	.
.	.	.	.	4A/	-ni-	.	.	.
2F\	-i	2c\	-i	2A/	-trix	2f\	-i	.
=16-	=16-	=16	=16	=16	=16	=16	=16	=16
2.F\	Ge-	2.c\	Ge-	2.A/	Ge-	2.f\	Ge-	.
4F\	-ni-	4c\	-ni-	4A/	-ni-	4f\	-ni-	.
!	!	!	!	!	!	!LO:TX:a:t=f:mod=	!	!
2BB-/	-trix	2d\	-trix	2B-\	-trix	2f\	-trix	.
=17	=17	=17	=17	=17	=17	=17	=17	=17
1FF	in-	1c	in-	1A	in-	1f	in-	.
2GG/	-ter-	2B-\	-ter-	2G/	-ter-	2B-/	-ter-	.
!	!	!	!	!	!	!LO:LB:g=original	!	!
=18-	=18-	=18	=18	=18	=18	=18	=18	=18
*	*	*	*	*	*	*xywh-#6:4247,4323,3744,809	*	*
2AA/	-ce-	2A/	-ce-	2c\	-ce-	2.f\	-ce-	.
2AA/	-de	2A/	-de	2c\	-de	.	.	.
.	.	.	.	.	.	4f\	-de	.
2D/	pro	2A/	pro	1d	pro	1f	pro	.
=19	=19	=19	=19	=19-	=19-	=19-	=19-	=19-
2BB-/	no-	1.G	no-	.	.	.	.	.
!	!	!	!	!	!	!LO:SIC:s=(2f\	!	!
1C	.	.	.	(2.c\	no-	2f\	no-	.
!	!	!	!	!	!	!LO:SIC:s=2e\)	!	!
.	.	.	.	.	.	2e\	.	.
.	.	.	.	4B-\)	.	.	.	.
!LO:LB:g=original	!	!	!	!	!	!	!	!
=20-	=20-	=20-	=20-	=20-	=20-	=20	=20	=20
*xywh-#21:4273,2714,3824,748	*	*	*	*	*	*	*	*
!	!LO:MO:mod=-bis,	!	!LO:MO:mod=-bis,	!	!LO:MO:mod=-bis,	!LO:TX:a:t=Solo	!LO:MO:mod=-bis,	!
2FF/	-bis	1.F	bis	1.A	-bis.	2f\	-bis	.
!	!	!	!	!	!	!	!	!LO:MO:mod=.
2rGG	.	.	.	.	.	2f\	De-	[[Ae-
!	!	!	!	!	!	!	!	!LO:MO:mod=.
2rGG	.	.	.	.	.	2f\	-i	-ter-
!	!	!LO:LB:g=original	!	!LO:PB:g=original	!	!	!	!
=21	=21	=21-	=21-	=21	=21	=21	=21	=21
*	*	*xywh-#16:4230,3311,3898,728	*	*xywh-#12:527,505,3766,778	*	*	*	*
!	!	!	!	!LO:MO:mod=2r	!	!	!	!LO:MO:mod=.
1F	De-	1.r	.	2rc	.	2.f\	Ge-	-nae]]
.	.	.	.	2c\	De-	.	.	.
.	.	.	.	.	.	4f\	-ni-	.
2E\	-i	.	.	2c\	-i	2g\	-trix	.
=22-	=22-	=22	=22	=22	=22	=22	=22	=22
2.F\	Ge-	1c	De-	2.c\	Ge-	1f	in-	.
4F\	-ni-	.	.	4B-\	-ni-	.	.	.
2C/	-trix	2c\	-i	2A/	-trix	2e\	-ter-	.
=23	=23	=23	=23	=23-	=23-	=23	=23	=23
1F	in-	2.c\	Ge-	2.A/	Ge-	1f	-ce-	.
.	.	4c\	-ni-	4A/	-ni-	.	.	.
2BB-/	-ter-	2d\	-trix	2B-\	-trix	2f\	-de	.
=24-	=24-	=24	=24	=24	=24	=24	=24	=24
2F\	-ce-	1c	in-	1A	in-	1f	in-	.
2FF/	-de	.	.	.	.	.	.	.
2GG/	pro	2B-\	-ter-	2G/	-ter-	2b-\	-ter-	.
=25	=25	=25	=25	=25	=25	=25-	=25-	=25
1AA	no-	2A/	-ce-	2c\	-ce-	2f\	-ce-	.
.	.	2A/	-de	2c\	-de	2f\	-de	.
2D/	.	2A/	pro	1d	pro	1f	pro	.
=26-	=26-	=26	=26	=26-	=26-	=26-	=26-	=26
2BB-/	.	1.G	no-	.	.	.	.	.
1C	.	.	.	2.c\	no-	2f\	no-	.
.	.	.	.	.	.	2e\	.	.
.	.	.	.	4B-\	.	.	.	.
=27	=27	=27	=27	=27	=27	=27	=27	=27
!LO:SIC:s=1FF,	!LO:MO:mod=-bis.	!LO:SIC:s=1F,	!	!	!LO:MO:mod=-bis.	!LO:SIC:s=1f,	!LO:MO:mod=-bis.	!
1FF	-bis	1F	-bis.	1A,<	-bis	1f	-bis	.
*	*	*	*	*	*	*xywh-#7:608,576,3780,985	*	*
!	!	!	!	!	!	!LO:PB:g=original	!LO:MO:mod=Al-	!
2F\	Al-	2A/	Al-	2A/	Al-	2f\	al-	.
=28	=28	=28	=28	=28	=28	=28	=28	=28
!	!	!	!	!LO:SIC:s=(4A/	!	!LO:SIC:s=(4f\	!	!
1F	-le-	1c	-le-	4A/	-le-	4f\	-le-	.
.	.	.	.	4G/	.	4e\	.	.
.	.	.	.	4A/	.	4f\	.	.
.	.	.	.	4B-\	.	4g\	.	.
2F\	-lu-	2A/	-lu-	4A\	.	4f\	.	.
.	.	.	.	4B-\	.	4g\	.	.
=29	=29	=29-	=29-	=29	=29	=29	=29	=29
!	!LO:MO:mod=-ja,	!LO:SIC:s=(2.F/	!LO:MO:mod=-ja,	!	!	!	!	!
1.F	-ja	2.F/	-ja	2.c\	.	2.a\	.	.
.	.	4G/	.	4B-\	.	4g\	.	.
!	!	!LO:SIC:s=2A/)	!	!	!	!	!	!
.	.	2A/	.	4A\	.	2f\	.	.
.	.	.	.	4B-\	.	.	.	.
!LO:LB:g=original	!	!	!	!LO:LB:g=original	!	!	!	!
=30-	=30-	=30	=30	=30	=30	=30	=30	=30
*	*	*	*	*xywh-#12:500,1011,3272,778	*	*	*	*
!	!	!LO:SIC:s=(2.G/	!	!	!	!	!	!
1C	al-	2.G/	al-	1c	.	2.e\	.	.
.	.	4A/	.	.	.	4f\	.	.
!	!	!LO:SIC:s=2B-\)	!	!	!	!	!	!
2GG/	.	2B-\	.	2d\	.	2g\	.	.
!	!	!LO:LB:g=original	!	!	!	!	!	!
=31	=31	=31-	=31-	=31	=31	=31	=31	=31
*xywh-#21:4261,3200,3647,771	*	*xywh-#16:4218,3739,1880,830	*	*	*	*	*	*
!LO:SIC:s=(2AA/	!	!	!	!	!	!LO:SIC:s=1f)	!	!
2AA/	-le-	2A/	-le-	2c\	.	1f	.	.
!LO:SIC:s=2BB-/)	!	!	!	!LO:SIC:s=2d\)	!	!	!	!
2BB-/	.	1G	-lu-	2d\	.	.	.	.
2C/	-lu-	.	.	2c\	-lu-	2e\	-lu-	.
=32	=32	=32	=32	=32	=32	=32	=32	=32
!	!LO:MO:mod=-ja,	!LO:TX:a:t=4:mod=	!LO:MO:mod=-ja,	!	!LO:MO:mod=-ja,	!	!LO:MO:mod=-ja,	!
!LO:SIC:s=2FF/,	!	!LO:SIC:s=[1.Fl;	!	!	!	!LO:SIC:s=2f\,	!	!
2FF/	-ja	[1.Fl	-ja	2A,<\	-ja	2f\	-ja	.
2BB-/	al-	.	.	2B-\	al-	2d\	al-	.
2FF/	-le-	.	.	2c\	-le-	2f\	-le-	.
=33	=33	=33	=33	=33	=33	=33-	=33-	=33-
1.BB-	-lu-	1.F_	.	1.B-	-lu-	1.d	-lu-	.
=34-	=34-	=34	=34	=34	=34	=34	=34	=34
!LO:N:vis=0	!LO:MO:mod=-ja.	!	!	!LO:N:vis=0	!	!LO:N:vis=0	!	!
!LO:SIC:s=1.FF;	!	!	!	!LO:SIC:s=1.c;	!	!LO:SIC:s=1.f;	!	!
1.FF;;	-ja	1.F]	.	1.c;;	-ja.	1.f;;	-ja.	.
==	==	==	==	==	==	==	==	==
*-	*-	*-	*-	*-	*-	*-	*-	*-
!!!system-decoration: [g1]
!!!RDF**kern: > = above
!!!RDF**kern: < = below
!!!RDF**kern: l = terminal long
!!!filter-modern: sic -sq | | autostem -r | tie -s | humtr -p | shed -e "s/-//B" | shed -k -e "s/[<>]//g" | modori -m
!!!ENC: Andrzej Kubiczek
!!!END: 2021-03-25
!!!ENC: Tomasz Grochalski
!!!END: 2021-03-23
!!!ENC-modern: Katarzyna Serwa
!!!END-modern: 2022-07-08
!!!IIIF: https://repozytorium.nifc.pl/islandora/object/pl-kk%3A5762/datastream/IIIF/view
!!!ENC-iiif: Mateusz Mrugas
!!!END-iiif: 2022-09-02
!!!YEC: Copyright 2022 Narodowy Instytut Fryderyka Chopina (https://polishscores.org)
!!!YEM: License CC-BY-4.0 (https://creativecommons.org/licenses/by/4.0)
